img/file.svg

<svg viewBox="0 0 28 32" xmlns="http://www.w3.org/2000/svg" xmlns:sketch="http://www.bohemiancoding.com/sketch/ns"><title>Slice 1</title><path d="M25.879 5.879l-3.757-3.757c-1.167-1.167-3.471-2.121-5.121-2.121h-14c-1.65 0-3 1.35-3 3v26c0 1.65 1.35 3 3 3h22c1.65 0 3-1.35 3-3v-18c0-1.65-.955-3.955-2.121-5.121l-.001-.001zm-7.879-1.643l.211.082c.564.234.956.505 1.082.631l3.757 3.757c.126.126.397.517.631 1.082l.082.211h-5.764v-5.764l.001.001zm6 23.764h-20v-24h12v8h8v16zm-18-12h16v2h-16v-2zm0 4h16v2h-16v-2zm0 4h16v2h-16v-2z" fill="#036" sketch:type="MSShapeGroup"/></svg>

<svg viewBox="0 0 28 32" xmlns="http://www.w3.org/2000/svg"><title>Slice 1</title><path d="M25.88 5.88L22.12 2.12c-1.167-1.167-3.47-2.12-5.12-2.12H3C1.35 0 0 1.35 0 3v26c0 1.65 1.35 3 3 3h22c1.65 0 3-1.35 3-3V11c0-1.65-.956-3.956-2.122-5.122zM18 4.235c.07.025.14.053.21.082.565.234.957.505 1.083.63l3.757 3.758c.126.126.397.517.63 1.082.03.072.058.143.083.21H18V4.236zM24 28H4V4h12v8h8v16zM6 16h16v2H6v-2zm0 4h16v2H6v-2zm0 4h16v2H6v-2z" fill="#036"/></svg>
